img/item2.svg

<svg width="72" height="72" viewBox="0 0 72 72" fill="none" xmlns="http://www.w3.org/2000/svg">
<circle cx="44" cy="44" r="28" fill="#2C6269"/>
<path fill-rule="evenodd" clip-rule="evenodd" d="M33.9062 53.8125C33.9062 55.0186 32.9249 56 31.7188 56H24.2812C23.0751 56 22.0938 55.0186 22.0938 53.8125V50.5471C20.0357 50.0092 18.0717 49.1948 16.2354 48.1177L13.9244 50.4287C13.0712 51.2815 11.6835 51.2815 10.8307 50.4287L5.57129 45.1693C4.71851 44.3165 4.71851 42.9288 5.57129 42.076L7.88226 39.7646C6.80518 37.9283 5.99084 35.9643 5.45294 33.9062H2.1875C0.981384 33.9062 0 32.9249 0 31.7188V24.2812C0 23.0751 0.981384 22.0938 2.1875 22.0938H5.44568C5.98187 20.0323 6.79535 18.0648 7.87244 16.2251L5.57129 13.924C4.71851 13.0712 4.71851 11.6835 5.57129 10.8307L10.8307 5.57129C11.6835 4.71851 13.0712 4.71851 13.9244 5.57129L16.2174 7.86475C18.0588 6.78253 20.0289 5.96478 22.0938 5.42517V2.1875C22.0938 0.981384 23.0751 0 24.2812 0H31.7188C32.9249 0 33.9062 0.981384 33.9062 2.1875V5.41791C35.9741 5.95581 37.948 6.77271 39.7924 7.85449L42.076 5.57129C42.9288 4.71851 44.3165 4.71851 45.1693 5.57129L50.4287 10.8307C51.2815 11.6835 51.2815 13.0712 50.4287 13.9244L48.1455 16.2076C49.2273 18.052 50.0442 20.0259 50.5821 22.0938H53.8125C55.0186 22.0938 56 23.0751 56 24.2812V31.7188C56 32.9249 55.0186 33.9062 53.8125 33.9062H50.5748C50.0352 35.9711 49.217 37.9412 48.1353 39.7826L50.4283 42.076C51.2811 42.9288 51.2811 44.3165 50.4283 45.1693L45.1693 50.4287C44.3165 51.2815 42.9288 51.2815 42.0756 50.4287L39.7749 48.1276C37.9348 49.2047 35.9673 50.0181 33.9062 50.5543V53.8125ZM16.0713 45.641C16.2747 45.641 16.4785 45.6974 16.6596 45.8127C18.7407 47.1415 21.0167 48.0853 23.4238 48.618C23.9249 48.7291 24.2812 49.173 24.2812 49.6862V53.8125H31.7188V49.6921C31.7188 49.1786 32.0759 48.7343 32.5775 48.624C34.988 48.0934 37.2674 47.1509 39.3519 45.823C39.7843 45.5474 40.3504 45.6094 40.7131 45.9721L43.6227 48.8817L48.8817 43.6227L45.9785 40.7195C45.6154 40.3564 45.5538 39.7894 45.8307 39.3566C47.1641 37.2717 48.1118 34.9902 48.6462 32.5762C48.7569 32.0751 49.2012 31.7188 49.7139 31.7188H53.8125V24.2812H49.7199C49.2064 24.2812 48.762 23.9241 48.6518 23.4225C48.1199 21.0051 47.174 18.7202 45.8405 16.6318C45.5645 16.199 45.6265 15.6329 45.9892 15.2698L48.8817 12.3773L43.6227 7.11835L40.7302 10.0108C40.3675 10.3735 39.801 10.4355 39.3682 10.1595C37.2798 8.82605 34.9949 7.88055 32.5775 7.34821C32.0759 7.23798 31.7188 6.79364 31.7188 6.28009V2.1875H24.2812V6.28607C24.2812 6.79919 23.9249 7.2431 23.4242 7.35419C21.0098 7.88867 18.7283 8.83588 16.6434 10.1693C16.211 10.4462 15.6436 10.3846 15.2809 10.0215L12.3773 7.11835L7.11835 12.3773L10.0279 15.2873C10.3906 15.6496 10.4526 16.2157 10.177 16.6481C8.84912 18.7326 7.90662 21.012 7.37598 23.4225C7.26575 23.9241 6.82141 24.2812 6.30786 24.2812H2.1875V31.7188H6.31384C6.82697 31.7188 7.27087 32.0755 7.38196 32.5762C7.91473 34.9838 8.85895 37.2593 10.1873 39.3404C10.4633 39.7732 10.4017 40.3397 10.0386 40.7025L7.11835 43.6227L12.3773 48.8821L15.2975 45.9614C15.509 45.7504 15.7889 45.641 16.0713 45.641ZM16.7083 39.2917C19.8217 42.4046 23.9108 43.9615 28 43.9615C32.0892 43.9615 36.1783 42.4046 39.2917 39.2917C44.1597 34.4241 45.3646 27.0182 42.2901 20.8641C42.0201 20.3237 41.363 20.1041 40.8229 20.3741C40.2825 20.6441 40.0633 21.3012 40.3333 21.8417C42.9865 27.1528 41.9462 33.5439 37.7451 37.7451C35.0581 40.432 31.5295 41.7753 28 41.7748C24.4714 41.7744 20.9419 40.4312 18.2554 37.7451C12.8819 32.3716 12.8819 23.6284 18.2554 18.2554C22.6026 13.9077 29.38 12.9691 34.736 15.9726C35.2628 16.2682 35.9293 16.0807 36.2249 15.5535C36.5201 15.0267 36.3326 14.3602 35.8058 14.0649C32.8296 12.3961 29.3181 11.7219 25.9167 12.1671C22.4039 12.6268 19.2197 14.1974 16.7083 16.7083C10.4821 22.9346 10.4821 33.0654 16.7083 39.2917ZM38.7572 18.8138C38.4684 18.8138 38.1873 18.6976 37.9826 18.4929C37.7792 18.2896 37.6635 18.0084 37.6635 17.72C37.6635 17.4321 37.7792 17.1501 37.9826 16.9467C38.186 16.7429 38.4684 16.6263 38.7572 16.6263C39.0447 16.6263 39.3267 16.7429 39.5305 16.9467C39.7339 17.1501 39.851 17.4321 39.851 17.72C39.851 18.0084 39.7339 18.2896 39.5305 18.4929C39.3259 18.6976 39.0447 18.8138 38.7572 18.8138ZM26.4564 36.0574C26.1663 36.0574 25.8881 35.9421 25.683 35.737L18.7664 28.8199C18.3391 28.3931 18.3391 27.7005 18.7664 27.2733L22.6893 23.3499C22.8944 23.1448 23.1725 23.0298 23.4626 23.0298C23.7527 23.0298 24.0313 23.1448 24.2364 23.3499L26.4564 25.5703L31.764 20.263C32.1909 19.8358 32.8834 19.8358 33.3107 20.263L37.2341 24.1864C37.6609 24.6132 37.6609 25.3058 37.2341 25.733L27.2301 35.737C27.0246 35.9421 26.7465 36.0574 26.4564 36.0574ZM21.0863 28.0466L26.4564 33.4166L34.9137 24.9597L32.5374 22.5834L27.2301 27.8906C27.025 28.0957 26.7465 28.2111 26.4564 28.2111C26.1663 28.2111 25.8881 28.0957 25.683 27.8906L23.4626 25.6702L21.0863 28.0466Z" fill="#79C8C7"/>
</svg>

<svg width="72" height="72" fill="none" xmlns="http://www.w3.org/2000/svg"><circle cx="44" cy="44" r="28" fill="#2C6269"/><path fill-rule="evenodd" clip-rule="evenodd" d="M33.906 53.813A2.19 2.19 0 0 1 31.72 56H24.28a2.19 2.19 0 0 1-2.187-2.188v-3.265a23.106 23.106 0 0 1-5.859-2.43l-2.31 2.312a2.19 2.19 0 0 1-3.094 0l-5.26-5.26a2.19 2.19 0 0 1 0-3.093l2.311-2.311a23.106 23.106 0 0 1-2.43-5.859H2.189A2.19 2.19 0 0 1 0 31.72V24.28a2.19 2.19 0 0 1 2.188-2.187h3.258a23.106 23.106 0 0 1 2.426-5.869l-2.3-2.301a2.19 2.19 0 0 1 0-3.093l5.259-5.26a2.19 2.19 0 0 1 3.093 0l2.293 2.294a23.105 23.105 0 0 1 5.877-2.44V2.188A2.19 2.19 0 0 1 24.28 0h7.438a2.19 2.19 0 0 1 2.187 2.188v3.23a23.117 23.117 0 0 1 5.886 2.436l2.284-2.283a2.19 2.19 0 0 1 3.093 0l5.26 5.26a2.19 2.19 0 0 1 0 3.093l-2.284 2.284a23.116 23.116 0 0 1 2.437 5.886h3.23A2.19 2.19 0 0 1 56 24.28v7.438a2.19 2.19 0 0 1-2.188 2.187h-3.237a23.124 23.124 0 0 1-2.44 5.877l2.293 2.293a2.19 2.19 0 0 1 0 3.093l-5.259 5.26a2.19 2.19 0 0 1-3.093 0l-2.301-2.301a23.117 23.117 0 0 1-5.869 2.426v3.258zM16.071 45.64c.204 0 .407.056.589.172a20.94 20.94 0 0 0 6.764 2.805c.5.111.857.555.857 1.068v4.127h7.438v-4.12c0-.514.357-.959.858-1.069 2.411-.53 4.69-1.473 6.775-2.801a1.094 1.094 0 0 1 1.361.15l2.91 2.909 5.259-5.26-2.904-2.903a1.094 1.094 0 0 1-.147-1.362 20.954 20.954 0 0 0 2.815-6.78c.11-.502.555-.858 1.068-.858h4.099V24.28H49.72c-.514 0-.958-.357-1.068-.858a20.943 20.943 0 0 0-2.812-6.791 1.094 1.094 0 0 1 .15-1.362l2.892-2.893-5.26-5.259-2.892 2.893c-.362.363-.929.425-1.362.149a20.953 20.953 0 0 0-6.79-2.812 1.093 1.093 0 0 1-.86-1.068V2.187h-7.437v4.1c0 .512-.356.956-.857 1.067a20.953 20.953 0 0 0-6.78 2.815c-.433.277-1 .216-1.363-.148l-2.904-2.903-5.259 5.26 2.91 2.91c.363.362.425.928.149 1.36a20.959 20.959 0 0 0-2.801 6.774c-.11.502-.555.86-1.068.86h-4.12v7.437h4.126c.513 0 .957.356 1.068.857a20.947 20.947 0 0 0 2.805 6.764c.276.433.215 1-.148 1.362l-2.92 2.92 5.258 5.26 2.92-2.92c.212-.212.492-.321.774-.321zm.637-6.35A15.92 15.92 0 0 0 28 43.962a15.92 15.92 0 0 0 11.292-4.67 15.95 15.95 0 0 0 2.998-18.427 1.094 1.094 0 1 0-1.957.978 13.765 13.765 0 0 1-2.588 15.903A13.735 13.735 0 0 1 28 41.775a13.742 13.742 0 0 1-9.745-4.03c-5.373-5.373-5.373-14.117 0-19.49 4.348-4.347 11.125-5.286 16.481-2.282a1.093 1.093 0 1 0 1.07-1.908 16.079 16.079 0 0 0-9.89-1.898 15.822 15.822 0 0 0-9.208 4.541c-6.226 6.227-6.226 16.357 0 22.584zm22.05-20.477a1.1 1.1 0 0 1-.775-.321 1.098 1.098 0 0 1 0-1.546c.203-.204.485-.32.774-.32.288 0 .57.116.774.32.203.203.32.485.32.773a1.1 1.1 0 0 1-.32.773 1.1 1.1 0 0 1-.774.32zM26.455 36.057c-.29 0-.568-.115-.773-.32l-6.917-6.917a1.093 1.093 0 0 1 0-1.547l3.923-3.923a1.093 1.093 0 0 1 1.547 0l2.22 2.22 5.308-5.307a1.094 1.094 0 0 1 1.547 0l3.923 3.923c.427.427.427 1.12 0 1.547L27.23 35.737c-.205.205-.483.32-.774.32zm-5.37-8.01l5.37 5.37 8.458-8.457-2.377-2.377-5.307 5.308a1.095 1.095 0 0 1-1.547 0l-2.22-2.22-2.377 2.376z" fill="#79C8C7"/></svg>
